X:228
T: DER RITTER MUSS ZUM BLUTGEN KAMPF
N: B0715
O: Europa, Mitteleuropa, Deutschland; Frankreich
R: Kriegs -, Helden - Lied
M: 4/4
L: 1/16
K: Bb
B2c3d | F6G2F3EC3D | B,8z2
F2B3B | d6c2B3cd3e | c4F4z2
B2c3d | =E6G2F3ED3C | F3
GA3Bc3dc3B | A4B2G2F4A2G2 | F4z6
F2c3B | A6G2F2e2d2c2 | B8z2
G2d3c | B6B2c2d2c2B2 | c4F4z8 |
d4e3dc3cf3A | B3Bc3BA3Ad3^F | G3
BA3GF2B2A2B2 | c4F4d4z4 |
d4e3dc3cf3A | B3Bc3BA3Ad3^F | G3
BA3GF2B2A2B2 | c4A4d3eG3c | B4d2c2B4z4

@@@ Tune index: 2446
